X:1
T:The Fragile Alliance
M:C
L:1/8
Q:210
C:(c) Greg Anderson, 2 March 2000
R:Reel
H:A reaction to very unsettling times at the office of the Alliance
H:Franais in Bordeaux, through whom I took a French course
K:Em
B2 BG EG BG|AB AF DF AF|EF GA Be dA|Bd BG AG EA|
B2 BG EG BG|AB AF DF AF|GA Bdef ed|1BA GD E2 GA:|2Bd e2 e2 ed
|:BG eG fG eG|de dB AF DF|EF GA B2 B2|fe d2 B2 ef|gf eg ag fe|de dB AG F
A|
GA Bd ef ed|1BA GD E2 ed:|2BA GD E2 AB||
